!!!!SEGMENT: Gsc2006-Dignare_me.krn
!!!id: Gsc2006
!!!AGN: Motet
!!!voices: 4
!!!COM: Mathieu Gascongne
!!!OTL: Dignare me
**kern	**kern	**kern	**kern
*part4	*part3	*part2	*part1
*staff4	*staff3	*staff2	*staff1
*I"Bassus	*I"Tenor	*I"Altus	*I"Superius
*I'B	*I'T	*I'A	*I'S
*clefF4	*clefF4	*clefGv2	*clefG2
*k[b-]	*k[b-]	*k[b-]	*k[b-]
*F:	*F:	*F:	*F:
*M2/1	*M2/1	*M2/1	*M2/1
*met(C|)	*met(C|)	*met(C|)	*met(C|)
!!Section: Prima pars: Dignare me
!!!OMD: Prima pars: Dignare me
0D	0r	0r	0r
=1	=1	=1	=1
1BB-y	0D	0r	0r
1GG	.	.	.
=2	=2	=2	=2
1.D	1BB-y	0r	0r
.	1GG	.	.
2D	.	.	.
=3	=3	=3	=3
1C	1.G	0r	0r
1BB-y	.	.	.
.	2G	.	.
=4	=4	=4	=4
0AA	1F	0A	0r
.	1E	.	.
=5	=5	=5	=5
0r	2.D	1F	0d
.	4C	.	.
.	2BB-y	1D	.
.	2AA	.	.
=6	=6	=6	=6
0r	0GG	1.d	1B-y
.	.	.	1G
.	.	2d	.
=7	=7	=7	=7
1r	1r	1c	1.g
1GG	2r	1B-y	.
.	2D	.	2g
=8	=8	=8	=8
1D	1D	0A	1f
1C	1E	.	1e
=9	=9	=9	=9
0BB-y	0F	0r	[0d
=10	=10	=10	=10
1r	2r	1D	0d]
.	2F	.	.
1GG	2G	[1G	.
.	[2B-y	.	.
=11	=11	=11	=11
1.D	2B-]	2G]	0r
.	4A	4F	.
.	4G	4E	.
.	4A	2F	.
.	4G	.	.
2BB-y	[2B-y	2F	.
=12	=12	=12	=12
1E-i	4B-]	1G	2r
.	4A	.	.
.	1G	.	2G
1D	.	1A	[1d
.	2F#i	.	.
=13	=13	=13	=13
0r	1G	2r	2d]
.	.	2G	2B-y
.	2r	1c	1e-i
.	2C	.	.
=14	=14	=14	=14
0r	1.G	1B-y	2d
.	.	.	2G
.	.	1c	[1c
.	4F	.	.
.	4E	.	.
=15	=15	=15	=15
0r	2F	0d	2c]
.	2F	.	4B-y
.	.	.	4A
.	1G	.	2B-y
.	.	.	2B-y
=16	=16	=16	=16
0r	1A	2r	1c
.	.	2A	.
.	1D	1d	2d
.	.	.	2f
=17	=17	=17	=17
1GG	1.G	2r	2g
.	.	2G	1b-y
[1D	.	1B-y	.
.	4F	.	4a
.	4E	.	4g
=18	=18	=18	=18
2D]	2F	2A	4a
.	.	.	4g
2BB-y	2F	1d	1b-y
1E-i	1G	.	.
.	.	2c	4a
.	.	.	4g
=19	=19	=19	=19
1D	0A	1d	0f
2r	.	2r	.
2D	.	2d	.
=20	=20	=20	=20
2BB-y	0r	1d	2r
2BB-y	.	.	2g
1C	.	1c	1g
=21	=21	=21	=21
1D	1r	2A	1f
.	.	2.B-y	.
1r	1G	.	2d
.	.	4A	.
.	.	4G	[2e-i
.	.	4F	.
=22	=22	=22	=22
0r	1G	4G	4e-]
.	.	4F	4d
.	.	1B-y	4c
.	.	.	4B-y
.	1F	.	1c
.	.	2A	.
=23	=23	=23	=23
0r	2D	2.d	1B-y
.	2.E-i	.	.
.	.	4c	.
.	.	4B-y	2r
.	4D	4A	.
.	4C	[2B-y	2e-X
.	4BB-y	.	.
=24	=24	=24	=24
0r	1C	2B-]	1e-i
.	.	2A	.
.	1BB-y	2B-y	1d
.	.	2F	.
=25	=25	=25	=25
1E-X	0r	2G	2B-y
.	.	2G	2.c
1E-i	.	2A	.
.	.	.	4B-y
.	.	[2G	4A
.	.	.	4G
=26	=26	=26	=26
1D	2r	2G]	1A
.	2F	2F	.
2BB-y	2G	2D	1G
[2C	2G	[2E	.
=27	=27	=27	=27
4C]	2A	4E]	0r
4BB-y	.	4D	.
4AA	1G	1D	.
4GG	.	.	.
1AA	.	.	.
.	2F#i	2C	.
=28	=28	=28	=28
0GG	0G	1D	1r
.	.	1r	1d
=29	=29	=29	=29
0r	0r	1F	1c
.	.	1G	1B-y
=30	=30	=30	=30
1r	1r	1B-y	0f
1D	1F	1A	.
=31	=31	=31	=31
1C	1G	1r	0r
1BB-y	1B-y	[1d	.
=32	=32	=32	=32
0F	1A	1d]	0r
.	2r	1c	.
.	2F	.	.
=33	=33	=33	=33
1r	1G	1B-y	1r
1BB-y	1B-y	1f	1d
=34	=34	=34	=34
1C	1A	0r	1c
1E-i	1G	.	1B-y
=35	=35	=35	=35
2.D	2A	2r	1.f
.	2B-y	1d	.
4E	.	.	.
2F	2A	.	.
[2G	[2B-y	2d	4e
.	.	.	4d
=36	=36	=36	=36
2G]	2B-]	2B-y	4e
.	.	.	4d
4F	4A	2c	1g
4E	4G	.	.
1D	1A	[1d	.
.	.	.	2f#i
=37	=37	=37	=37
0GG	1G	2d]	0g
.	.	4c	.
.	.	4B-y	.
.	1r	2e-i	.
.	.	2d	.
=38	=38	=38	=38
2r	1G	1d	0r
2GG	.	.	.
2BB-y	2G	1r	.
2AA	2F	.	.
=39	=39	=39	=39
2BB-y	2G	2r	1g
2C	2E	2G	.
1D	1D	2B-y	2g
.	.	2A	2f
=40	=40	=40	=40
0r	0r	2B-y	2g
.	.	2c	2a
.	.	[1d	1f
=41	=41	=41	=41
1G	2r	1d]	0r
.	2G	.	.
2G	2B-y	1r	.
2F	2A	.	.
=42	=42	=42	=42
2G	2B-y	1r	2r
2A	2c	.	2a
1F	1A	2r	2a
.	.	2c	2a
=43	=43	=43	=43
0r	0r	2d	2f
.	.	2d	2d
.	.	2B-y	2.g
.	.	2G	.
.	.	.	4f
=44	=44	=44	=44
0r	0r	2.c	4e
.	.	.	4d
.	.	.	1e
.	.	4B-y	.
.	.	4A	.
.	.	4G	.
.	.	2A	[2f
=45	=45	=45	=45
0r	0r	4B-y	2f]
.	.	4A	.
.	.	2.d	4e
.	.	.	4d
.	.	.	1e
.	.	4c	.
.	.	2c	.
=46	=46	=46	=46
1r	2r	2B-y	0d
.	2G	4A	.
.	.	4G	.
2r	2A	1F	.
2D	2A	.	.
=47	=47	=47	=47
2D	2F	0r	0r
2D	2D	.	.
2BB-y	2.G	.	.
2GG	.	.	.
.	4F	.	.
=48	=48	=48	=48
2.C	4E	0r	0r
.	4D	.	.
.	1E	.	.
4BB-y	.	.	.
4AA	.	.	.
4GG	.	.	.
2AA	[2F	.	.
=49	=49	=49	=49
4BB-y	2F]	0r	0r
4AA	.	.	.
1D	4E	.	.
.	4D	.	.
.	1E	.	.
2C#i	.	.	.
=50	=50	=50	=50
0D	1D	0r	2r
.	.	.	2d
.	1r	.	1f
=51	=51	=51	=51
1r	1G	0r	1e
1D	1B-y	.	1d
=52	=52	=52	=52
1F	1A	2r	0r
.	.	2A	.
1E	1G	1c	.
=53	=53	=53	=53
0D	1r	1B-y	2r
.	.	.	1g
.	2r	1A	.
.	2F	.	2f
=54	=54	=54	=54
1G	2G	2B-y	2e
.	2B-y	2G	1d
2F	2A	2A	.
[2E	[2G	[2c	2c
=55	=55	=55	=55
2E]	2G]	2c]	1d
2D	1F	1B-y	.
1C	.	.	1e
.	2E	2A	.
=56	=56	=56	=56
0BB-y	1F	1B-y	1d
.	1B-y	1d	1r
=57	=57	=57	=57
1D	2B-y	2d	1f
.	2B-y	2d	.
2D	2B-y	2.d	2f
2D	2A	.	2f
.	.	4c	.
=58	=58	=58	=58
2E	1G	2B-y	2g
2C	.	2c	2e
1D	2F	2A	2.f
.	2D	2B-y	.
.	.	.	4g
=59	=59	=59	=59
1C	1E	1c	2a
.	.	.	2.g
1BB-y	1D	2r	.
.	.	.	4f
.	.	2G	4e
.	.	.	4d
=60	=60	=60	=60
1AA	2E	1A	1c
.	1F	.	.
2BB-y	.	2D	1d
[2D	4E	2F	.
.	4D	.	.
=61	=61	=61	=61
2D]	1E	4E	2B-y
.	.	4D	.
2C	.	1G	2c
1D	[1D	.	1A
.	.	2F#i	.
=62	=62	=62	=62
00GG	00D]	00G	00B-y
=63||	=63||	=63||	=63||
*M2/1	*M2/1	*M2/1	*M2/1
*met(C|)	*met(C|)	*met(C|)	*met(C|)
!!Section: Secunda pars: Cum iocunditate
!!!OMD: Secunda pars: Cum iocunditate
0r	0r	1r	1G
.	.	1G	2G
.	.	.	[2B-y
=64	=64	=64	=64
1GG	0r	2G	2B-]
.	.	1B-y	2G
2GG	.	.	[1d
[2BB-y	.	2G	.
=65	=65	=65	=65
2BB-]	1D	1.d	2d]
2GG	.	.	4c
.	.	.	4B-y
[1D	2D	.	1A
.	[2F	4c	.
.	.	4B-y	.
=66	=66	=66	=66
1D]	2F]	1A	1.d
.	2D	.	.
1GG	[1G	1r	.
.	.	.	4c
.	.	.	4B-y
=67	=67	=67	=67
0r	2G]	1A	1c
.	4F	.	.
.	4E	.	.
.	1F	2A	2r
.	.	2A	2c
=68	=68	=68	=68
1D	0r	1B-y	2d
.	.	.	2d
2D	.	1A	1f
2D	.	.	.
=69	=69	=69	=69
1C	2r	0r	2e
.	2G	.	2c
1BB-y	2G	.	1d
.	2G	.	.
=70	=70	=70	=70
0r	1A	0r	2c
.	.	.	2A
.	[1G	.	1B-y
=71	=71	=71	=71
0r	2G]	2r	1A
.	4F	2A	.
.	4E	.	.
.	1F	2A	2r
.	.	2A	2c
=72	=72	=72	=72
1D	0r	1B-y	2d
.	.	.	2d
2D	.	1A	1f
2D	.	.	.
=73	=73	=73	=73
1C	1G	2r	1e
.	.	2c	.
1BB-y	2G	1d	1r
.	2G	.	.
=74	=74	=74	=74
0r	1A	2c	2r
.	.	2A	2f
.	1G	1B-y	1g
=75	=75	=75	=75
2r	0r	1A	2f
2F	.	.	2d
1G	.	2r	2e
.	.	2G	[2d
=76	=76	=76	=76
1.F	1r	2.A	2d]
.	.	.	4c
.	.	4B-y	4B-y
.	2r	2c	1A
2D	2F	[2d	.
=77	=77	=77	=77
1E	1G	2d]	0r
.	.	2c#i	.
1D	[1F	2d	.
.	.	4cny	.
.	.	4B-y	.
=78	=78	=78	=78
2D	2F]	1A	2r
4C	2D	.	1d
4BB-y	.	.	.
1AA	1E	2r	.
.	.	2A	2c
=79	=79	=79	=79
1.D	2D	2A	2.d
.	1F	2B-y	.
.	.	.	4e
.	.	4A	2f
.	.	4G	.
2C	2E	[2c	[2g
=80	=80	=80	=80
1D	1F	2c]	2g]
.	.	2BnXi	1f
1C	1G	1c	.
.	.	.	2e
=81	=81	=81	=81
0r	1F	2r	1f
.	.	2A	.
.	1r	1B-y	2r
.	.	.	2f
=82	=82	=82	=82
2r	0r	2G	1g
2G	.	2.d	.
2A	.	.	2e
.	.	4c	.
[2F	.	2c	2f
=83	=83	=83	=83
2F]	0r	2A	1d
2G	.	2B-y	.
1E	.	1G	1c
=84	=84	=84	=84
1D	2r	1A	2r
.	2F	.	1d
1r	1G	2G	.
.	.	2B-y	[2e
=85	=85	=85	=85
0r	2E	2c	4e]
.	.	.	4d
.	2F	1A	1c
.	1D	.	.
.	.	2B-y	[2f
=86	=86	=86	=86
2r	2C	1G	4f]
.	.	.	4e
2C	2C	.	2.e
1D	1F	2F	.
.	.	.	4d
.	.	[2B-y	[2d
=87	=87	=87	=87
2BB-y	2D	4B-]	2d]
.	.	4A	.
2C	2E	1G	4c
.	.	.	4B-y
1AA	1C	.	1c
.	.	2F#i	.
=88	=88	=88	=88
1GG	0D	2G	2B-y
.	.	2B-y	2G
2r	.	1A	1d
2D	.	.	.
=89	=89	=89	=89
2E	1r	2r	1c
2F	.	2A	.
1BB-y	2r	1d	2B-y
.	2D	.	2f
=90	=90	=90	=90
1r	2E	1c	2g
.	2F	.	2a
2r	1BB-y	2.B-y	2d
2F	.	.	[2f
.	.	4A	.
=91	=91	=91	=91
2G	1r	2B-y	2f]
2A	.	2c	2e
2D	2r	2F	2f
2D	2F	[2B-y	2d
=92	=92	=92	=92
2C	2G	2B-]	2e
4BB-y	2A	1A	1f
4AA	.	.	.
2BB-y	2D	.	.
2BB-y	2D	2G	4e
.	.	.	4d
=93	=93	=93	=93
0AA	1F	0A	2c
.	.	.	1d
.	1E	.	.
.	.	.	2c#i
=94	=94	=94	=94
2r	1D	2r	1d
1BB-y	.	2F	.
.	1r	2G	1r
2AA	.	2A	.
=95	=95	=95	=95
2BB-y	2r	2F	0r
1D	2F	2A	.
.	2G	2B-y	.
2C	2A	2c	.
=96	=96	=96	=96
1F	2D	2d	2r
.	2A	2.c	2f
2E	2G	.	2g
.	.	4B-y	.
2D	2F	[2d	2a
=97	=97	=97	=97
2.G	1B-y	2d]	2.d
.	.	2G	.
4F	.	.	4e
2D	2.A	1d	4f
.	.	.	4g
[2F	.	.	[2a
.	4G	.	.
=98	=98	=98	=98
2F]	2A	2c	2a]
4E	2B-y	2d	2f
4D	.	.	.
2E	1G	2B-y	2g
2C	.	2e-i	[2a
=99	=99	=99	=99
2D	2F	2d	4a]
.	.	.	4g
2E	2G	2c	1g
1D	1A	1d	.
.	.	.	2f#i
=100	=100	=100	=100
[0GGl	[0Gl	1.B-y	[0gl
.	.	4A	.
.	.	4G	.
=101	=101	=101	=101
00GG]	00G]	00dl	00g]
==	==	==	==
*-	*-	*-	*-
!!!system-decoration: [*]
!!!RDF**kern: i = editorial accidental
!!!RDF**kern: l = terminal long
!!!ENC: Benjamin Ory
!!!END: 2024/5/16
!!!EED: Benjamin Ory
!!!EEV: 2024/05/16
!!!YEC: Copyright 2024 Benjamin Ory, All Rights Reserved
!!!ONB: Translated from MusicXML on 2024/05/16